shared/images/iconfont/75-kb-iconfont-people-16.svg

<?xml version="1.0" encoding="UTF-8"?>
<svg width="16px" height="16px" viewBox="0 0 16 16" version="1.1" xmlns="http://www.w3.org/2000/svg" xmlns:xlink="http://www.w3.org/1999/xlink">
    <!-- Generator: sketchtool 57.1 (101010) - https://sketch.com -->
    <title>7583F026-458E-41D3-B1C1-66219F80DDA6</title>
    <desc>Created with sketchtool.</desc>
    <g id="Symbols" stroke="none" stroke-width="1" fill="none" fill-rule="evenodd">
        <g id="75-kb-iconfont-people-16">
            <g>
                <rect id="icon-area" opacity="0" x="0" y="0" width="16" height="16"></rect>
                <path d="M-4.4408921e-16,11.7943849 C-6.05661085e-16,12.2967467 0.240459765,12.7687572 0.646837665,13.064095 L0.993933691,13.3163492 C1.27358137,13.5195849 1.66503571,13.4576408 1.86827144,13.1779931 C1.94600107,13.071039 1.98786738,12.9422184 1.98786738,12.8100023 L1.98786738,11.1317625 L1.98786738,11.1317625 C1.99684152,10.3416501 2.26358996,9.57608149 2.74755078,8.95146953 C1.13079173,9.43889461 -4.4408921e-16,10.5286965 -4.4408921e-16,11.7943849 Z M10.9332706,3.98180107 C10.9332706,2.33499781 9.59827279,1 7.95146953,1 C6.30466627,1 4.96966846,2.33499781 4.96966846,3.98180107 C4.97155266,5.62782324 6.30544736,6.96171795 7.95146953,6.96360215 C9.59827279,6.96360215 10.9332706,5.62860433 10.9332706,3.98180107 Z M3.64442354,3.98180107 C3.64446005,3.69332418 3.67339995,3.40557673 3.73080963,3.12287008 C3.49042412,3.03638321 3.23725528,2.99075158 2.98180107,2.98782183 C1.90916139,2.98118198 0.971888636,3.71094162 0.715399284,4.75248556 C0.458909933,5.79402951 0.950134329,6.87556913 1.90321985,7.36773636 C2.85630536,7.85990359 4.02254639,7.63426846 4.72328555,6.82213225 C4.02870003,6.03897812 3.64491975,5.0285958 3.64442354,3.98180107 Z M13.2524492,8.95146953 C13.73641,9.57608149 14.0031585,10.3416501 14.0121326,11.1317625 L14.0121326,12.8100023 C14.0121326,13.155701 14.2923768,13.4359452 14.6380755,13.4359452 C14.7702915,13.4359452 14.8991121,13.3940788 15.0060663,13.3163492 L15.3531623,13.064095 C15.7595402,12.7687572 16,12.2967467 16,11.7943849 L16,11.7943849 L16,11.7943849 C16,10.5285971 14.8692083,9.43880847 13.2524492,8.95146953 Z M15.2403379,5.307046 C15.2388232,4.02681812 14.2013659,2.9893608 12.921138,2.98786738 C12.6656838,2.99075158 12.4125149,3.03638321 12.1721294,3.12287008 C12.4413626,4.44341728 12.0737317,5.81369013 11.1796535,6.82213225 C11.8103586,7.5559891 12.8317044,7.81881294 13.7382988,7.48055076 C14.6448932,7.14228858 15.2444603,6.27468104 15.2403379,5.307046 Z M7.95146953,8.28884707 C5.3938396,8.28884707 3.31309856,9.68680818 3.31309856,11.40524 L3.31309856,12.1529772 C3.31308463,12.9132688 3.74416404,13.6078117 4.42547834,13.9452345 C5.47460035,14.464815 6.58845515,14.7246052 7.76704275,14.7246052 C8.98134707,14.7246052 10.1973427,14.4488307 11.4150297,13.8972815 C12.1303143,13.5732843 12.5898268,12.8606968 12.5898268,12.075454 L12.5898268,11.40524 L12.5898268,11.40524 C12.5898268,9.68680818 10.5092651,8.28884707 7.95146953,8.28884707 Z" id="team" fill="#000000"></path>
            </g>
        </g>
    </g>
</svg>

<svg xmlns="http://www.w3.org/2000/svg" width="16" height="16" viewBox="0 0 16 16">
    <path fill="#000" fill-rule="nonzero" d="M0 11.794c0 .503.24.975.647 1.27l.347.252a.626.626 0 0 0 .994-.506v-1.678c.009-.79.276-1.556.76-2.18C1.13 9.438 0 10.528 0 11.793zm10.933-7.812a2.982 2.982 0 1 0-5.963 0 2.982 2.982 0 0 0 5.963 0zm-7.289 0c0-.289.03-.576.087-.86a2.289 2.289 0 0 0-.75-.134 2.32 2.32 0 1 0 1.742 3.834 4.284 4.284 0 0 1-1.079-2.84zm9.608 4.97c.484.624.751 1.39.76 2.18v1.678a.626.626 0 0 0 .994.506l.347-.252a1.57 1.57 0 0 0 .647-1.27c0-1.265-1.13-2.355-2.748-2.843zm1.988-3.645a2.322 2.322 0 0 0-2.319-2.32 2.289 2.289 0 0 0-.749.136 4.286 4.286 0 0 1-.992 3.7 2.31 2.31 0 0 0 4.06-1.516zM7.951 8.289c-2.557 0-4.638 1.398-4.638 3.116v.748a2 2 0 0 0 1.113 1.792 7.43 7.43 0 0 0 3.341.78c1.214 0 2.43-.276 3.648-.828a2 2 0 0 0 1.175-1.822v-.67c0-1.718-2.08-3.116-4.639-3.116z"/>
</svg>
